X: 17279
T: Herman's Hostel
R: jig
M: 6/8
K: Edorian
|:~E3 EFG|~E3 EFG|~F2D A,FD|~F3 AGF|
~E3 EFG|~E3 EFG|BdB AGF|1 G2F EDB,:|2 GED E2c||
|:dAB AGF|dAB AGE|FED A,FD|
[1 ~F3 ABc|dAB AGF|dAB ~A3|(3Bcd B AGF|GED E2c:|
[2 ~F3 AGF|~E3 EFG|~E3 EFG|BdB AGF|G2F E3||

